app/style/icons/tutorials/identity/identity-slide4.svg

<svg fill="none" version="1.1" viewBox="0 0 1160 800" xmlns="http://www.w3.org/2000/svg">
 <path d="M1160 0H0V800H1160V0Z" fill="#fff"/>
 <path d="m803.15 411.56h297.85c3.71 0 7.27 1.475 9.9 4.1 2.63 2.626 4.1 6.187 4.1 9.9v316.05c0 3.713-1.47 7.274-4.1 9.899-2.63 2.626-6.19 4.101-9.9 4.101h-302c-3.713 0-7.274-1.475-9.899-4.101-2.626-2.625-4.101-6.186-4.101-9.899v-311.89c0-4.815 1.912-9.433 5.315-12.838 3.404-3.405 8.02-5.32 12.835-5.322z" fill="#FEB8A5"/>
 <path d="m803.15 45.41h297.85c3.71 0 7.27 1.475 9.9 4.1005s4.1 6.1864 4.1 9.8995v316.06c0 3.713-1.47 7.274-4.1 9.9-2.63 2.625-6.19 4.1-9.9 4.1h-302c-3.713 0-7.274-1.475-9.899-4.1-2.626-2.626-4.101-6.187-4.101-9.9v-311.9c0-4.8146 1.912-9.4322 5.315-12.838 3.404-3.4053 8.02-5.3198 12.835-5.3224z" fill="#FEB8A5"/>
 <path d="m748.88 45.41h-689.28c-7.732 0-14 6.268-14 14v681.17c0 7.732 6.268 14 14 14h689.28c7.732 0 14-6.268 14-14v-681.17c0-7.732-6.268-14-14-14z" fill="#2970FF"/>
 <path d="m1020.7 222.9c0.01-17.326-6.48-34.025-18.2-46.786-11.723-12.761-27.81-20.653-45.075-22.112-17.265-1.458-34.447 3.624-48.141 14.238-13.695 10.615-22.901 25.987-25.794 43.07l-23 35.721c-0.712 1.039-1.126 2.253-1.199 3.511s0.2 2.511 0.787 3.626c0.588 1.114 1.469 2.047 2.547 2.698 1.079 0.651 2.315 0.995 3.575 0.994h16.43v34.401c0 3.047 1.211 5.969 3.365 8.124 2.155 2.155 5.078 3.365 8.125 3.365h23v27.62c0 1.83 0.727 3.586 2.021 4.88s3.049 2.02 4.879 2.02h55.24c1.83 0 3.585-0.726 4.879-2.02s2.021-3.05 2.021-4.88v-48.639c10.503-6.063 19.22-14.784 25.29-25.287 6.06-10.503 9.25-22.416 9.25-34.544z" fill="#ED6D47"/>
 <g fill="#091440">
  <path d="m888.79 106.8c-1.076 1.045-1.693 2.475-1.716 3.975-0.022 1.5 0.552 2.948 1.596 4.025l26.33 26.29c1.079 1.078 2.543 1.683 4.069 1.682 1.525-1e-3 2.988-0.608 4.066-1.687 1.078-1.08 1.683-2.543 1.682-4.069-1e-3 -1.525-0.608-2.988-1.687-4.066l-26.27-26.27c-0.524-0.524-1.148-0.936-1.836-1.211-0.687-0.275-1.424-0.407-2.164-0.389-1.505 0.035-2.939 0.651-4 1.72h-0.07z"/>
  <path d="m951.35 75.841c-0.745-0.0119-1.484 0.123-2.177 0.3969-0.692 0.274-1.324 0.6818-1.859 1.1999-0.535 0.5182-0.962 1.1367-1.258 1.8201s-0.454 1.4184-0.466 2.1631v37.17c0.062 1.484 0.695 2.888 1.768 3.917 1.072 1.028 2.501 1.603 3.987 1.603s2.915-0.575 3.987-1.603c1.073-1.029 1.706-2.433 1.768-3.917v-37.17c0-0.7361-0.149-1.4646-0.438-2.1416-0.288-0.6771-0.711-1.2888-1.242-1.7984-1.093-1.0541-2.552-1.6422-4.07-1.64z"/>
  <path d="m1013.9 106.8c-1.05-1.076-2.48-1.693-3.98-1.715-1.5-0.023-2.94 0.551-4.02 1.595l-26.3 26.32c-1.013 1.093-1.563 2.536-1.534 4.025 0.028 1.49 0.632 2.91 1.686 3.964 1.053 1.053 2.474 1.658 3.963 1.686 1.49 0.028 2.932-0.522 4.025-1.535l26.25-26.33c0.52-0.525 0.93-1.15 1.21-1.837 0.27-0.687 0.4-1.423 0.39-2.163-0.04-1.505-0.65-2.938-1.72-4l0.03-0.01z"/>
 </g>
 <path d="m572.18 287.7v-86.59h-325v400h325v-313.41z" fill="#fff"/>
 <g fill="#091440">
  <path d="m522.18 376.29h-175v25h175v-25z"/>
  <path d="m424.06 301.29h-122.77v25h122.77v-25z"/>
  <path d="m424.06 251.41h-122.77v25h122.77v-25z"/>
  <path d="m522.18 451.29h-175v25h175v-25z"/>
  <path d="m522.18 526.29h-175v25h175v-25z"/>
  <path d="m322.18 376.29h-25v25h25v-25z"/>
  <path d="m322.18 451.29h-25v25h25v-25z"/>
  <path d="m322.18 526.29h-25v25h25v-25z"/>
 </g>
 <path d="m484.37 326.07c20.744 0 37.56-16.816 37.56-37.56s-16.816-37.56-37.56-37.56-37.56 16.816-37.56 37.56 16.816 37.56 37.56 37.56z" fill="#2970FF"/>
 <path d="m1064.2 497.61h-230.38v158.51h230.38v-158.51z" fill="#ED6D47"/>
 <path d="m1064.2 512.02h-230.38v172.92h230.38v-172.92z" fill="#fff"/>
 <g fill="#ED6D47">
  <path d="m884.18 483.2h-14.41v43.23h14.41v-43.23z"/>
  <path d="m1028.3 483.2h-14.41v43.23h14.41v-43.23z"/>
  <path d="m992.26 483.2h-14.41v43.23h14.41v-43.23z"/>
  <path d="m920.21 483.2h-14.41v43.23h14.41v-43.23z"/>
  <path d="m1064.2 540.84h-230.38v14.41h230.38v-14.41z"/>
 </g>
 <g fill="#091440">
  <path d="m884.18 612.89h-14.41v14.41h14.41v-14.41z"/>
  <path d="m913 612.89h-14.41v14.41h14.41v-14.41z"/>
  <path d="m941.82 612.89h-14.41v14.41h14.41v-14.41z"/>
  <path d="m970.64 612.89h-14.41v14.41h14.41v-14.41z"/>
  <path d="m999.46 612.89h-14.41v14.41h14.41v-14.41z"/>
  <path d="m1028.3 612.89h-14.41v14.41h14.41v-14.41z"/>
  <path d="m884.18 584.07h-14.41v14.41h14.41v-14.41z"/>
  <path d="M913 584.07H898.59V598.48H913V584.07Z"/>
  <path d="m941.82 584.07h-14.41v14.41h14.41v-14.41z"/>
  <path d="m970.64 584.07h-14.41v14.41h14.41v-14.41z"/>
  <path d="m999.46 584.07h-14.41v14.41h14.41v-14.41z"/>
  <path d="m1028.3 584.07h-14.41v14.41h14.41v-14.41z"/>
  <path d="m884.18 641.71h-14.41v14.41h14.41v-14.41z"/>
  <path d="m913 641.71h-14.41v14.41h14.41v-14.41z"/>
  <path d="m941.82 641.71h-14.41v14.41h14.41v-14.41z"/>
  <path d="m970.64 641.71h-14.41v14.41h14.41v-14.41z"/>
  <path d="m999.46 641.71h-14.41v14.41h14.41v-14.41z"/>
 </g>
 <path d="m1033.9 636.12h-25.6v25.6h25.6v-25.6z" fill="#ED6D47"/>
 <path d="m1028.3 641.71h-14.41v14.41h14.41v-14.41z" fill="#091440"/>
 <g id="FAVOCONS" transform="matrix(.56305 0 0 .56305 466.54 267.39)">
  <polygon points="35.56 38.38 61 68.56 63.34 66.6 37.56 36 63.34 5.4 61 3.44 35.56 33.62 33.57 36" fill="#c1272d"/>
  <polygon points="58.99 1.96 56.65 0 28.31 33.62 2.34 2.67 0 4.64 26.32 36 0 67.36 2.34 69.33 28.31 38.38 56.65 72 58.99 70.04 30.3 36" fill="#fff"/>
 </g>
</svg>

<svg width="1160" height="800" viewBox="0 0 1160 800" fill="none" xmlns="http://www.w3.org/2000/svg">
<path d="M1160 0H0V800H1160V0Z" fill="white"/>
<path d="M803.15 411.561H1101C1104.71 411.561 1108.27 413.036 1110.9 415.661C1113.53 418.287 1115 421.848 1115 425.561V741.611C1115 745.324 1113.53 748.885 1110.9 751.51C1108.27 754.136 1104.71 755.611 1101 755.611H799C795.287 755.611 791.726 754.136 789.101 751.51C786.475 748.885 785 745.324 785 741.611V429.721C785 424.906 786.912 420.288 790.315 416.883C793.719 413.478 798.335 411.563 803.15 411.561Z" fill="#FEB8A5"/>
<path d="M803.15 45.4102H1101C1104.71 45.4102 1108.27 46.8852 1110.9 49.5107C1113.53 52.1362 1115 55.6971 1115 59.4102V375.47C1115 379.183 1113.53 382.744 1110.9 385.37C1108.27 387.995 1104.71 389.47 1101 389.47H799C795.287 389.47 791.726 387.995 789.101 385.37C786.475 382.744 785 379.183 785 375.47V63.5702C785 58.7556 786.912 54.138 790.315 50.7326C793.719 47.3273 798.335 45.4128 803.15 45.4102Z" fill="#FEB8A5"/>
<path d="M748.88 45.4102H59.6C51.868 45.4102 45.6 51.6782 45.6 59.4102V740.58C45.6 748.312 51.868 754.58 59.6 754.58H748.88C756.612 754.58 762.88 748.312 762.88 740.58V59.4102C762.88 51.6782 756.612 45.4102 748.88 45.4102Z" fill="#2970FF"/>
<path d="M1020.72 222.899C1020.73 205.573 1014.24 188.874 1002.52 176.113C990.797 163.352 974.71 155.46 957.445 154.001C940.18 152.543 922.998 157.625 909.304 168.239C895.609 178.854 886.403 194.226 883.51 211.309L860.51 247.03C859.798 248.069 859.384 249.283 859.311 250.541C859.238 251.799 859.511 253.052 860.098 254.167C860.686 255.281 861.567 256.214 862.645 256.865C863.724 257.516 864.96 257.86 866.22 257.859H882.65V292.26C882.65 295.307 883.861 298.229 886.015 300.384C888.17 302.539 891.093 303.749 894.14 303.749H917.14V331.369C917.14 333.199 917.867 334.955 919.161 336.249C920.455 337.543 922.21 338.269 924.04 338.269H979.28C981.11 338.269 982.865 337.543 984.159 336.249C985.453 334.955 986.18 333.199 986.18 331.369V282.73C996.683 276.667 1005.4 267.946 1011.47 257.443C1017.53 246.94 1020.72 235.027 1020.72 222.899Z" fill="#ED6D47"/>
<path d="M888.79 106.8C887.714 107.845 887.097 109.275 887.074 110.775C887.052 112.275 887.626 113.723 888.67 114.8L915 141.09C916.079 142.168 917.543 142.773 919.069 142.772C920.594 142.771 922.057 142.164 923.135 141.085C924.213 140.005 924.818 138.542 924.817 137.016C924.816 135.491 924.209 134.028 923.13 132.95L896.86 106.68C896.336 106.156 895.712 105.744 895.024 105.469C894.337 105.194 893.6 105.062 892.86 105.08C891.355 105.115 889.921 105.731 888.86 106.8H888.79Z" fill="#091440"/>
<path d="M951.35 75.8406C950.605 75.8287 949.866 75.9636 949.173 76.2375C948.481 76.5115 947.849 76.9193 947.314 77.4374C946.779 77.9556 946.352 78.5741 946.056 79.2575C945.76 79.9409 945.602 80.6759 945.59 81.4206V118.591C945.652 120.075 946.285 121.479 947.358 122.508C948.43 123.536 949.859 124.111 951.345 124.111C952.831 124.111 954.26 123.536 955.332 122.508C956.405 121.479 957.038 120.075 957.1 118.591V81.4206C957.1 80.6845 956.951 79.956 956.662 79.279C956.374 78.6019 955.951 77.9902 955.42 77.4806C954.327 76.4265 952.868 75.8384 951.35 75.8406Z" fill="#091440"/>
<path d="M1013.91 106.8C1012.86 105.724 1011.43 105.107 1009.93 105.085C1008.43 105.062 1006.99 105.636 1005.91 106.68L979.61 133C978.597 134.093 978.047 135.536 978.076 137.025C978.104 138.515 978.708 139.935 979.762 140.989C980.815 142.042 982.236 142.647 983.725 142.675C985.215 142.703 986.657 142.153 987.75 141.14L1014 114.81C1014.52 114.285 1014.93 113.66 1015.21 112.973C1015.48 112.286 1015.61 111.55 1015.6 110.81C1015.56 109.305 1014.95 107.872 1013.88 106.81L1013.91 106.8Z" fill="#091440"/>
<path d="M572.18 287.699V201.109H504.35H247.18V601.109H572.18V287.699Z" fill="white"/>
<path d="M522.18 376.289H347.18V401.289H522.18V376.289Z" fill="#091440"/>
<path d="M424.06 301.289H301.29V326.289H424.06V301.289Z" fill="#091440"/>
<path d="M424.06 251.41H301.29V276.41H424.06V251.41Z" fill="#091440"/>
<path d="M522.18 451.289H347.18V476.289H522.18V451.289Z" fill="#091440"/>
<path d="M522.18 526.289H347.18V551.289H522.18V526.289Z" fill="#091440"/>
<path d="M322.18 376.289H297.18V401.289H322.18V376.289Z" fill="#091440"/>
<path d="M322.18 451.289H297.18V476.289H322.18V451.289Z" fill="#091440"/>
<path d="M322.18 526.289H297.18V551.289H322.18V526.289Z" fill="#091440"/>
<path d="M484.37 326.069C505.114 326.069 521.93 309.253 521.93 288.509C521.93 267.765 505.114 250.949 484.37 250.949C463.626 250.949 446.81 267.765 446.81 288.509C446.81 309.253 463.626 326.069 484.37 326.069Z" fill="#2970FF"/>
<path d="M495.797 297.497L504 306H495.144L482.043 292.403H490.836C491.698 292.403 492.552 292.227 493.347 291.885C494.143 291.542 494.865 291.039 495.471 290.406C496.703 289.129 497.394 287.4 497.394 285.597C497.394 283.795 496.703 282.066 495.471 280.788C494.86 280.162 494.14 279.66 493.348 279.311C492.551 278.974 491.697 278.802 490.836 278.805H487.557L481 272H490.836C492.561 272.01 494.267 272.367 495.86 273.05C499.078 274.437 501.63 277.085 502.957 280.412C503.611 282.058 503.949 283.819 503.95 285.597C504.083 288.237 503.352 290.847 501.873 293.006C500.394 295.164 498.254 296.746 495.797 297.497Z" fill="white"/>
<path d="M472.272 280.503L464.065 272H472.876L486.018 285.597H477.144C476.28 285.602 475.425 285.778 474.626 286.116C473.829 286.459 473.106 286.961 472.499 287.594C471.273 288.876 470.586 290.603 470.586 292.403C470.586 294.202 471.273 295.929 472.499 297.212C473.109 297.84 473.832 298.341 474.626 298.689C475.424 299.029 476.28 299.201 477.144 299.195H480.429L487 306H477.144C475.414 305.997 473.702 305.642 472.106 304.957C470.509 304.271 469.06 303.268 467.84 302.005C466.621 300.742 465.655 299.244 464.999 297.596C464.342 295.948 464.008 294.184 464.014 292.403C463.886 289.751 464.631 287.132 466.13 284.972C467.63 282.812 469.794 281.237 472.272 280.503Z" fill="white"/>
<path d="M1064.21 497.609H833.83V656.119H1064.21V497.609Z" fill="#ED6D47"/>
<path d="M1064.21 512.02H833.83V684.94H1064.21V512.02Z" fill="white"/>
<path d="M884.18 483.199H869.77V526.429H884.18V483.199Z" fill="#ED6D47"/>
<path d="M1028.28 483.199H1013.87V526.429H1028.28V483.199Z" fill="#ED6D47"/>
<path d="M992.26 483.199H977.85V526.429H992.26V483.199Z" fill="#ED6D47"/>
<path d="M920.21 483.199H905.8V526.429H920.21V483.199Z" fill="#ED6D47"/>
<path d="M1064.21 540.84H833.83V555.25H1064.21V540.84Z" fill="#ED6D47"/>
<path d="M884.18 612.891H869.77V627.301H884.18V612.891Z" fill="#091440"/>
<path d="M913 612.891H898.59V627.301H913V612.891Z" fill="#091440"/>
<path d="M941.82 612.891H927.41V627.301H941.82V612.891Z" fill="#091440"/>
<path d="M970.64 612.891H956.23V627.301H970.64V612.891Z" fill="#091440"/>
<path d="M999.46 612.891H985.05V627.301H999.46V612.891Z" fill="#091440"/>
<path d="M1028.28 612.891H1013.87V627.301H1028.28V612.891Z" fill="#091440"/>
<path d="M884.18 584.07H869.77V598.48H884.18V584.07Z" fill="#091440"/>
<path d="M913 584.07H898.59V598.48H913V584.07Z" fill="#091440"/>
<path d="M941.82 584.07H927.41V598.48H941.82V584.07Z" fill="#091440"/>
<path d="M970.64 584.07H956.23V598.48H970.64V584.07Z" fill="#091440"/>
<path d="M999.46 584.07H985.05V598.48H999.46V584.07Z" fill="#091440"/>
<path d="M1028.28 584.07H1013.87V598.48H1028.28V584.07Z" fill="#091440"/>
<path d="M884.18 641.711H869.77V656.121H884.18V641.711Z" fill="#091440"/>
<path d="M913 641.711H898.59V656.121H913V641.711Z" fill="#091440"/>
<path d="M941.82 641.711H927.41V656.121H941.82V641.711Z" fill="#091440"/>
<path d="M970.64 641.711H956.23V656.121H970.64V641.711Z" fill="#091440"/>
<path d="M999.46 641.711H985.05V656.121H999.46V641.711Z" fill="#091440"/>
<path d="M1033.87 636.119H1008.27V661.719H1033.87V636.119Z" fill="#ED6D47"/>
<path d="M1028.28 641.711H1013.87V656.121H1028.28V641.711Z" fill="#091440"/>
</svg>
